packages/foundations/assets/icons/functional/images/audio & video/volume_disabled_16.svg

<svg width="16" height="16" viewBox="0 0 16 16" fill="none" xmlns="http://www.w3.org/2000/svg">
<g clip-path="url(#clip0_184_403)">
<path fill-rule="evenodd" clip-rule="evenodd" d="M12.777 2.396C13.151 2.396 13.573 2.646 13.573 3.176C13.5744 3.35485 13.5198 3.52966 13.417 3.676L3.78501 13.354C3.71076 13.4263 3.62275 13.4829 3.52622 13.5205C3.42968 13.5581 3.32657 13.576 3.22301 13.573C3.00648 13.5723 2.79881 13.4869 2.64431 13.3352C2.4898 13.1835 2.4007 12.9775 2.39601 12.761C2.39601 12.589 2.45201 12.427 2.58301 12.293L3.65301 11.193C2.53501 11.03 1.60001 10.106 1.60001 8.827V7.236C1.60001 5.948 2.71801 4.816 3.84801 4.816H4.58101L6.78201 3.365C6.911 3.27615 7.06339 3.22744 7.22001 3.225C7.61001 3.225 8.00001 3.537 8.00001 3.927V6.861L10.841 4.005L10.654 3.802C10.5725 3.73339 10.5076 3.64715 10.4643 3.54979C10.421 3.45243 10.4004 3.34649 10.404 3.24C10.404 2.803 10.763 2.413 11.216 2.413C11.512 2.413 11.621 2.506 11.996 2.881L12.215 2.631C12.2857 2.55304 12.3727 2.49164 12.4699 2.4512C12.567 2.41075 12.6719 2.39124 12.777 2.396ZM6.40701 5.502L5.50201 6.127C5.16201 6.361 4.98701 6.423 4.80001 6.423H4.00401C3.89792 6.42229 3.79277 6.44293 3.69483 6.48369C3.59688 6.52445 3.50813 6.58449 3.43387 6.66025C3.3596 6.73601 3.30133 6.82593 3.26253 6.92467C3.22373 7.02341 3.20519 7.12894 3.20801 7.235V8.827C3.20801 9.162 3.46001 9.607 4.00401 9.607H4.80001C4.96001 9.607 5.00501 9.651 5.15901 9.701L6.40801 8.453V5.503L6.40701 5.502ZM6.72001 12.652L8.00001 11.372V11.996C8.00319 12.1055 7.98397 12.2144 7.94353 12.3162C7.9031 12.418 7.8423 12.5104 7.76486 12.5878C7.68742 12.6653 7.59498 12.7261 7.49321 12.7665C7.39143 12.807 7.28247 12.8262 7.17301 12.823C7.03301 12.823 6.93901 12.776 6.72001 12.652ZM9.12401 10.248L11.2 8.203C11.122 8.983 10.716 9.701 10.123 10.233C9.9885 10.348 9.81589 10.4086 9.63901 10.403C9.46701 10.403 9.35901 10.373 9.12401 10.248ZM10.404 12.808C10.4045 12.6938 10.4282 12.5809 10.4738 12.4762C10.5193 12.3715 10.5858 12.2772 10.669 12.199C11.301 11.6799 11.8167 11.0335 12.1825 10.302C12.5483 9.57045 12.7559 8.77009 12.792 7.953C12.7994 7.55363 12.7305 7.15653 12.589 6.783L13.839 5.549C14.197 6.299 14.369 7.126 14.4 7.953C14.322 10.076 13.339 12.043 11.715 13.416C11.5824 13.5362 11.41 13.6031 11.231 13.604C10.763 13.604 10.404 13.26 10.404 12.808Z" fill="#1A1C1F"/>
</g>
<defs>
<clipPath id="clip0_184_403">
<rect width="16" height="16" fill="white"/>
</clipPath>
</defs>
</svg>

<svg xmlns="http://www.w3.org/2000/svg" width="16" height="16" fill="none"><g clip-path="url(#a)"><path fill="#1A1C1F" fill-rule="evenodd" d="M12.777 2.396c.374 0 .796.25.796.78a.86.86 0 0 1-.156.5l-9.632 9.678a.77.77 0 0 1-.562.219.83.83 0 0 1-.827-.812c0-.172.056-.334.187-.468l1.07-1.1C2.535 11.03 1.6 10.106 1.6 8.827V7.236c0-1.288 1.118-2.42 2.248-2.42h.733l2.201-1.451a.8.8 0 0 1 .438-.14c.39 0 .78.312.78.702v2.934l2.841-2.856-.187-.203a.7.7 0 0 1-.25-.562c0-.437.359-.827.812-.827.296 0 .405.093.78.468l.219-.25a.72.72 0 0 1 .562-.235m-6.37 3.106-.905.625c-.34.234-.515.296-.702.296h-.796a.79.79 0 0 0-.796.812v1.592c0 .335.252.78.796.78H4.8c.16 0 .205.044.359.094l1.249-1.248v-2.95zm.313 7.15L8 11.372v.624a.804.804 0 0 1-.827.827c-.14 0-.234-.047-.453-.171m2.404-2.404L11.2 8.203c-.078.78-.484 1.498-1.077 2.03a.7.7 0 0 1-.484.17c-.172 0-.28-.03-.515-.155m1.28 2.56a.84.84 0 0 1 .265-.609 5.83 5.83 0 0 0 2.123-4.246c.007-.4-.062-.796-.203-1.17l1.25-1.234c.358.75.53 1.577.561 2.404-.078 2.123-1.061 4.09-2.685 5.463a.73.73 0 0 1-.484.188c-.468 0-.827-.344-.827-.796" clip-rule="evenodd"/></g><defs><clipPath id="a"><path fill="#fff" d="M0 0h16v16H0z"/></clipPath></defs></svg>
